public/assets/images/logo/05.svg

<svg width="119" height="38" viewBox="0 0 119 38" fill="none" xmlns="http://www.w3.org/2000/svg">
<g clip-path="url(#clip0_903_22788)">
<path d="M15.7732 25.7961C14.9921 26.5772 13.7258 26.5772 12.9448 25.7961L9.41176 22.2631C5.91251 18.7639 0 21.2375 0 26.1847V30.6402C0 31.7448 0.89543 32.6402 2 32.6402H26.7179C27.8225 32.6402 28.7179 31.7448 28.7179 30.6402V17.6798C28.7179 15.898 26.5636 15.0057 25.3037 16.2656L15.7732 25.7961Z" fill="white"/>
<path d="M12.9448 6.84407C13.7258 6.06303 14.9921 6.06303 15.7732 6.84407L19.3062 10.3771C22.8054 13.8763 28.7179 11.4027 28.7179 6.4555V2C28.7179 0.895429 27.8225 0 26.7179 0H2C0.895429 0 0 0.895431 0 2V14.9604C0 16.7422 2.15428 17.6345 3.41421 16.3746L12.9448 6.84407Z" fill="white"/>
<path d="M48.5097 29.3204H41.8652V25.2071H48.2636C50.0801 25.2071 51.5976 24.879 52.8164 24.2227C54.0469 23.5547 54.9668 22.5528 55.5761 21.2168C56.1972 19.8809 56.5078 18.211 56.5078 16.2071C56.5078 14.2031 56.2031 12.5391 55.5937 11.2149C54.9844 9.89063 54.0761 8.90039 52.8691 8.24414C51.6621 7.57617 50.1679 7.24219 48.3867 7.24219H41.7246V3.12891H48.6679C51.2695 3.12891 53.5019 3.65039 55.3652 4.69336C57.2402 5.73633 58.6816 7.23633 59.6894 9.19336C60.6972 11.1504 61.2011 13.4883 61.2011 16.2071C61.2011 18.9258 60.6972 21.2696 59.6894 23.2383C58.6816 25.1954 57.2285 26.7012 55.3301 27.7559C53.4433 28.7989 51.1699 29.3204 48.5097 29.3204ZM44.3613 3.12891V29.3204H39.6152V3.12891H44.3613ZM64.1367 29.3204V9.66797H68.7597V29.3204H64.1367ZM66.457 6.9082C65.7187 6.9082 65.0859 6.66211 64.5586 6.16992C64.0312 5.67774 63.7676 5.08594 63.7676 4.39453C63.7676 3.69141 64.0312 3.09375 64.5586 2.60156C65.0859 2.10938 65.7187 1.86328 66.457 1.86328C67.1836 1.86328 67.8105 2.10938 68.3379 2.60156C68.8652 3.09375 69.1289 3.68555 69.1289 4.37695C69.1289 5.08008 68.8652 5.67774 68.3379 6.16992C67.8105 6.66211 67.1836 6.9082 66.457 6.9082ZM80.6953 37.0899C78.1992 37.0899 76.2363 36.6035 74.8066 35.6309C73.3769 34.67 72.457 33.504 72.0469 32.1329L76.1953 31.1133C76.3828 31.5001 76.6582 31.8808 77.0215 32.2558C77.3847 32.6425 77.8711 32.959 78.4804 33.205C79.0898 33.4628 79.8574 33.5918 80.7832 33.5918C82.0957 33.5918 83.1797 33.2696 84.0351 32.6251C84.9023 31.9922 85.3359 30.9551 85.3359 29.5137V25.8047H85.0722C84.8496 26.2735 84.5097 26.7598 84.0527 27.2637C83.5957 27.7559 82.9922 28.1778 82.2422 28.5293C81.5039 28.8692 80.5664 29.0391 79.4297 29.0391C77.9297 29.0391 76.5644 28.6817 75.334 27.9668C74.1152 27.252 73.1426 26.1856 72.416 24.7676C71.7011 23.3497 71.3437 21.5743 71.3437 19.4415C71.3437 17.2852 71.7011 15.4629 72.416 13.9747C73.1426 12.4864 74.1211 11.3555 75.3515 10.5821C76.582 9.80859 77.9531 9.42188 79.4648 9.42188C80.6133 9.42188 81.5625 9.61524 82.3125 10.002C83.0625 10.3887 83.6601 10.8575 84.1054 11.4083C84.5508 11.9473 84.8965 12.4512 85.1426 12.92H85.3886V9.66797H89.9062V29.6368C89.9062 31.3126 89.5078 32.7012 88.7109 33.8028C87.914 34.9043 86.8183 35.7246 85.4238 36.2636C84.041 36.8144 82.4648 37.0899 80.6953 37.0899ZM80.7304 25.4004C82.207 25.4004 83.3437 24.8731 84.1406 23.8184C84.9492 22.752 85.3535 21.2813 85.3535 19.4063C85.3535 18.1641 85.1777 17.0801 84.8261 16.1543C84.4746 15.2286 83.9531 14.5079 83.2617 13.9922C82.5703 13.4766 81.7265 13.2188 80.7304 13.2188C79.6992 13.2188 78.8379 13.4883 78.1465 14.0274C77.4551 14.5665 76.9336 15.3047 76.582 16.2422C76.2422 17.168 76.0722 18.2227 76.0722 19.4063C76.0722 20.6016 76.248 21.6504 76.5996 22.5528C76.9511 23.4551 77.4726 24.1583 78.164 24.6622C78.8672 25.1543 79.7226 25.4004 80.7304 25.4004ZM93.3164 29.3204V9.66797H97.9394V29.3204H93.3164ZM95.6367 6.9082C94.8984 6.9082 94.2656 6.66211 93.7383 6.16992C93.2109 5.67774 92.9472 5.08594 92.9472 4.39453C92.9472 3.69141 93.2109 3.09375 93.7383 2.60156C94.2656 2.10938 94.8984 1.86328 95.6367 1.86328C96.3633 1.86328 96.9902 2.10938 97.5176 2.60156C98.0449 3.09375 98.3086 3.68555 98.3086 4.37695C98.3086 5.08008 98.0449 5.67774 97.5176 6.16992C96.9902 6.66211 96.3633 6.9082 95.6367 6.9082ZM105.146 9.66797L109.102 16.9454L113.127 9.66797H118.031L112.125 19.5118L118.137 29.3204H113.268L109.102 22.254L105.006 29.3204H100.102L106.061 19.5118L100.242 9.66797H105.146Z" fill="white"/>
</g>
<defs>
<clipPath id="clip0_903_22788">
<rect width="119" height="38" fill="white"/>
</clipPath>
</defs>
</svg>

<svg xmlns="http://www.w3.org/2000/svg" width="119" height="38" fill="none" viewBox="0 0 119 38"><g fill="#fff" clip-path="url(#a)"><path d="M15.773 25.796a2 2 0 0 1-2.828 0l-3.533-3.533C5.912 18.763 0 21.237 0 26.185v4.455a2 2 0 0 0 2 2h24.718a2 2 0 0 0 2-2V17.68c0-1.782-2.154-2.674-3.414-1.414zM12.945 6.844a2 2 0 0 1 2.828 0l3.533 3.533c3.5 3.5 9.412 1.026 9.412-3.922V2a2 2 0 0 0-2-2H2a2 2 0 0 0-2 2v12.96c0 1.782 2.154 2.674 3.414 1.415zM48.51 29.32h-6.645v-4.113h6.399q2.725 0 4.552-.984 1.845-1.002 2.76-3.006.932-2.004.932-5.01t-.914-4.992-2.725-2.97q-1.81-1.003-4.482-1.003h-6.662V3.13h6.943q3.903 0 6.697 1.564 2.813 1.564 4.324 4.5 1.512 2.936 1.512 7.014t-1.512 7.031q-1.51 2.936-4.359 4.518-2.83 1.564-6.82 1.564M44.36 3.13v26.19h-4.746V3.13zm19.777 26.19V9.668h4.623V29.32zm2.32-22.412a2.68 2.68 0 0 1-1.898-.738q-.792-.738-.791-1.775 0-1.055.79-1.793a2.68 2.68 0 0 1 1.899-.739q1.09 0 1.88.739.792.738.792 1.775 0 1.054-.791 1.793a2.66 2.66 0 0 1-1.881.738M80.695 37.09q-3.744 0-5.888-1.46-2.145-1.44-2.76-3.497l4.148-1.02q.281.58.827 1.143.545.58 1.458.949.915.387 2.303.387 1.97 0 3.252-.967 1.3-.95 1.3-3.111v-3.71h-.263q-.333.704-1.02 1.46-.685.738-1.81 1.265-1.108.51-2.812.51-2.25 0-4.096-1.072-1.828-1.072-2.918-3.2-1.072-2.126-1.072-5.325 0-3.236 1.072-5.467 1.09-2.234 2.936-3.393 1.845-1.16 4.113-1.16 1.722 0 2.847.58t1.793 1.406q.668.81 1.038 1.512h.246V9.668h4.517v19.969q0 2.514-1.195 4.166t-3.287 2.46q-2.075.827-4.729.827m.035-11.69q2.216 0 3.41-1.582 1.214-1.6 1.213-4.412 0-1.863-.527-3.252t-1.564-2.162-2.532-.773q-1.546 0-2.584.808-1.036.81-1.564 2.215-.51 1.389-.51 3.164 0 1.793.528 3.147.527 1.353 1.564 2.11 1.055.737 2.566.737m12.586 3.92V9.668h4.623V29.32zm2.32-22.412a2.68 2.68 0 0 1-1.898-.738q-.79-.738-.79-1.775 0-1.055.79-1.793a2.68 2.68 0 0 1 1.899-.739q1.09 0 1.88.739.792.738.792 1.775 0 1.054-.791 1.793a2.66 2.66 0 0 1-1.881.738m9.51 2.76 3.956 7.277 4.025-7.277h4.904l-5.906 9.844 6.012 9.808h-4.869l-4.166-7.066-4.096 7.066h-4.904l5.959-9.808-5.819-9.844z"/></g><defs><clipPath id="a"><path fill="#fff" d="M0 0h119v38H0z"/></clipPath></defs></svg>
